src/assets/images/intro-icon-3.svg

<svg width="18" height="18" viewBox="0 0 18 18" fill="none" xmlns="http://www.w3.org/2000/svg">
<path d="M6.63158 4.73684C6.02432 4.73684 2.50011 4.73684 1.89474 4.73684C0.847895 4.73684 0 5.58474 0 6.63158C0 7.67842 0.847895 8.52631 1.89474 8.52631C2.50011 8.52631 6.02432 8.52631 6.63158 8.52631C7.67842 8.52631 8.52631 7.67842 8.52631 6.63158C8.52631 5.58474 7.67842 4.73684 6.63158 4.73684ZM8.52631 1.89474C8.52631 2.46126 8.52631 3.78947 8.52631 3.78947C8.52631 3.78947 7.11189 3.78947 6.63158 3.78947C5.58474 3.78947 4.73684 2.94158 4.73684 1.89474C4.73684 0.847895 5.58474 0 6.63158 0C7.67842 0 8.52631 0.847895 8.52631 1.89474ZM4.73684 11.3684C4.73684 11.9757 4.73684 15.4999 4.73684 16.1053C4.73684 17.1521 5.58474 18 6.63158 18C7.67842 18 8.52631 17.1521 8.52631 16.1053C8.52631 15.4999 8.52631 11.9757 8.52631 11.3684C8.52631 10.3216 7.67842 9.47368 6.63158 9.47368C5.58474 9.47368 4.73684 10.3216 4.73684 11.3684ZM1.89474 9.47368C2.46126 9.47368 3.78947 9.47368 3.78947 9.47368C3.78947 9.47368 3.78947 10.8881 3.78947 11.3684C3.78947 12.4153 2.94158 13.2632 1.89474 13.2632C0.847895 13.2632 0 12.4153 0 11.3684C0 10.3216 0.847895 9.47368 1.89474 9.47368ZM11.3684 13.2632C11.9757 13.2632 15.4999 13.2632 16.1053 13.2632C17.1521 13.2632 18 12.4153 18 11.3684C18 10.3216 17.1521 9.47368 16.1053 9.47368C15.4999 9.47368 11.9757 9.47368 11.3684 9.47368C10.3216 9.47368 9.47368 10.3216 9.47368 11.3684C9.47368 12.4143 10.3216 13.2632 11.3684 13.2632ZM9.47368 16.1053C9.47368 15.5387 9.47368 14.2105 9.47368 14.2105C9.47368 14.2105 10.8881 14.2105 11.3684 14.2105C12.4153 14.2105 13.2632 15.0584 13.2632 16.1053C13.2632 17.1521 12.4153 18 11.3684 18C10.3216 18 9.47368 17.1512 9.47368 16.1053ZM13.2632 6.63158C13.2632 6.02432 13.2632 2.50011 13.2632 1.89474C13.2632 0.847895 12.4153 0 11.3684 0C10.3216 0 9.47368 0.847895 9.47368 1.89474C9.47368 2.50011 9.47368 6.02432 9.47368 6.63158C9.47368 7.67842 10.3216 8.52631 11.3684 8.52631C12.4143 8.52631 13.2632 7.67747 13.2632 6.63158ZM16.1053 8.52631C15.5387 8.52631 14.2105 8.52631 14.2105 8.52631C14.2105 8.52631 14.2105 7.11189 14.2105 6.63158C14.2105 5.58474 15.0584 4.73684 16.1053 4.73684C17.1521 4.73684 18 5.58474 18 6.63158C18 7.67842 17.1512 8.52631 16.1053 8.52631Z" fill="white"/>
</svg>

<svg xmlns="http://www.w3.org/2000/svg" width="18" height="18" fill="none"><path fill="#fff" d="M6.632 4.737H1.895a1.894 1.894 0 1 0 0 3.79h4.737a1.894 1.894 0 1 0 0-3.79Zm1.894-2.842v1.894H6.632a1.894 1.894 0 1 1 1.894-1.894Zm-3.79 9.473v4.737a1.894 1.894 0 1 0 3.79 0v-4.737a1.894 1.894 0 1 0-3.79 0ZM1.896 9.474h1.894v1.894a1.894 1.894 0 1 1-1.894-1.894Zm9.473 3.79h4.737a1.894 1.894 0 1 0 0-3.79h-4.737a1.894 1.894 0 1 0 0 3.79Zm-1.894 2.841V14.21h1.894a1.894 1.894 0 1 1-1.894 1.895Zm3.79-9.473V1.895a1.894 1.894 0 1 0-3.79 0v4.737a1.894 1.894 0 1 0 3.79 0Zm2.841 1.894H14.21V6.632a1.894 1.894 0 1 1 1.895 1.894Z"/></svg>
